themes/csil/font/icomoon.svg

<?xml version="1.0" standalone="no"?>
<!DOCTYPE svg PUBLIC "-//W3C//DTD SVG 1.1//EN" "http://www.w3.org/Graphics/SVG/1.1/DTD/svg11.dtd" >
<svg xmlns="http://www.w3.org/2000/svg">
<metadata>Generated by IcoMoon</metadata>
<defs>
<font id="icomoon" horiz-adv-x="512">
<font-face units-per-em="512" ascent="480" descent="-32" />
<missing-glyph horiz-adv-x="512" />
<glyph unicode="&#x20;" d="" horiz-adv-x="256" />
<glyph unicode="&#xe600;" d="M512 176l-96 96v144h-64v-80l-96 96-256-256v-16h64v-160h160v96h64v-96h160v160h64z" />
<glyph unicode="&#xe601;" d="M320 192c52.935 0 100.935-21.533 135.701-56.299l-45.234-45.234c-23.177 23.178-55.178 37.533-90.467 37.533s-67.289-14.355-90.467-37.533l-45.234 45.234c34.766 34.766 82.766 56.299 135.701 56.299zM93.726 226.274c60.44 60.44 140.799 93.726 226.274 93.726s165.834-33.286 226.275-93.726l-45.255-45.254c-48.353 48.352-112.64 74.98-181.020 74.98-68.381 0-132.667-26.628-181.019-74.981l-45.255 45.255zM494.392 412.781c53.351-22.566 101.258-54.864 142.391-95.998v0l-45.254-45.254c-72.528 72.528-168.96 112.471-271.529 112.471-102.57 0-199-39.943-271.529-112.471l-45.255 45.255c41.134 41.133 89.041 73.431 142.392 95.997 55.252 23.369 113.926 35.219 174.392 35.219 60.466 0 119.139-11.85 174.392-35.219zM288 32c0 17.673 14.327 32 32 32s32-14.327 32-32c0-17.673-14.327-32-32-32-17.673 0-32 14.327-32 32z" horiz-adv-x="640" />
<glyph unicode="&#xe602;" d="M96 448v-384h384v384h-384zM448 96h-320v320h320v-320zM64 32v320l-32 32v-384h384l-32 32zM214.627 137.373l96 96 73.373-73.373v192h-192l73.373-73.373-96-96z" />
</font></defs></svg>

<?xml version="1.0" standalone="no"?>
<!DOCTYPE svg PUBLIC "-//W3C//DTD SVG 1.1//EN" "http://www.w3.org/Graphics/SVG/1.1/DTD/svg11.dtd" >
<svg xmlns="http://www.w3.org/2000/svg">
<metadata>
This is a custom SVG font generated by IcoMoon.
<iconset grid="16"></iconset>
</metadata>
<defs>
<font id="icomoon" horiz-adv-x="512" >
<font-face units-per-em="512" ascent="480" descent="-32" />
<missing-glyph horiz-adv-x="512" />
<glyph class="hidden" unicode="&#xf000;" d="M0,480L 512 -32L0 -32 z" horiz-adv-x="0" />
<glyph unicode="&#x21;" d="M 512,176L 416,272L 416,416L 352,416L 352,336L 256,432L0,176L0,160L 64,160L 64,0L 224,0L 224,96L 288,96L 288,0L 448,0L 448,160L 512,160 z"  />
<glyph unicode="&#x22;" d="M 96,416L 416,224L 96,32 z"  />
<glyph unicode="&#x23;" d="M 96,448l0-384 l 384,0 L 480,448 L 96,448 z M 448,96L 128,96 L 128,416 l 320,0 L 448,96 zM 64,32L 64,352L 32,384L 32,0L 416,0L 384,32 	zM 214.627,137.373L 310.627,233.373L 384,160L 384,352L 192,352L 265.373,278.627L 169.373,182.627 	z"  />
<glyph unicode="&#x20;" horiz-adv-x="256" />
</font></defs></svg>
